X: 287
T: Katy Bar the Door
C:Unknown composer
B: canberra pickers and fiddlers
B: tunes
M:4/4
L:1/8
Q: 1/4=120
K:D
V:1 
D2-|: "D" DFDB Bd d2 | "D" e f2 e f2 ef | "D" g2 g2 fgfd | "A" A3 A A2 ef |
"A"g2 g2 fgfA |"G" G2 G2 B3 B | "A" A2 A2 B2 c2 |1"D" d3 d d2 D2- :|2 "D" d3 d d2 e2- ||
|: "D" eefe dABc |"D" d2 f2 f2 ff |"D" eefe dABG | "A" A3 B ABdd | 
"D" fded BdAF | "G" G2 G2 B3 B | "A" A2 A2 B2 c2 |1 "D" d3 d d2 e2- :|2 "D" d3 d d4 || 
% abcbook-tune_id 63da5934a2d6c7a66d06745e
% abcbook-tune_composer_id 
% abcbook-link-0 https://www.youtube.com/watch?v=TMM01NW-CSw
% abcbook-boost 0
% abcbook-difficulty 0
% abcbook-tags canberra pickers and fiddlers,old time tunes,© free
% abcbook-tablature 
% abcbook-transpose 
% abcbook-tuning ADAE
% abcbook-lastupdated 1739276124163
% abcbook-src-url https://tunebook.net/scrape/tunes.abc
% abcbook-soundfonts 
% abcbook-repeats 1
%%gchordfont "itim-music,Itim" 20

